X: 281
T: Voyage South (The) (reel)
C: BB 3/09
N: 222274
M: 4/4
R: reel
Q: 380
K: D
D | "Bm"FB B2 FBdB | "Bm"FBAB dcAB | "F#m"Fc c2 ec c/B/c | "F#m"ABce fecA |
"Bm"FBBA "G"GBBd | "A"cAeA "F#m"fece | "Bm"fB B2 "A"cBAE | "F#m"FAcA "Bm"B3 :|
c | "D"dAAA "A"eA A/^G/A | "D"fdfa "Bm"bafe | "D"f2 af "Bm"bfaf | "Em"gfed B3c |
"D"defd "A"cdec | "Bm"BABc "D"dAFA | "G"GBAG "D"FAde | "A"fecA "D"d3 :|
%%%%%
